X:3375
T:Contredanses de l' ARGUENON
Z: Yves BELOTTEAU
M:4/4
L:1/8
Q:1/4=60
K:C
|gf/2e/2d/2e/2f e<ded/2c/2|B/2c/2dB/2G3/2 gf/2e/2d/2e/2f|e/2d3/2ed/2c/2 
B/2c/2dB/2c3/2|ee/2d/2ce/2d/2 cggf/2e/2|
d/2c/2Bd/2e/2f e/2d/2ece|e/2d/2ce/2d/2c ggf/2e/2d/2c/2|Bd/2e/2fe/2d/2 c2
|


